X: 3
T: The New Rigged Ship
R: jig
M: 6/8
L: 1/8
K: Dmaj
|: A | dcd d2 f | dcd d2 f | ecA ABc | ecA ABc |
dcd d2 f | dcd d2 f | ecA ABc | [1 d3-d2 :| [2 d3 f2 g |]
|: a2 f a2 f | ded dfa | b2 g b2 g | efe efg |
a2 f a2 f | dcd d2 f | ecA ABc | [1 d3 f2 g :| [2 d3-d2 |]


Tune 1207	Setting 1207

